icons/1_Primary/Marketplace.tf.svg

<svg xmlns="http://www.w3.org/2000/svg" viewBox="0 0 1024 1024">
   <circle cx="512" cy="512" r="512" style="fill:#3498db"/>
   <path d="M648.57 733.72c.02-74.55.03-149.09 0-223.64.37-5.5-3.91-10.87-9.45-11.44-4.87-1-9.9 1.56-12.24 5.85-30.07 48.54-60.31 96.97-90.26 145.58-16.41.08-32.81.07-49.23 0-29.95-48.59-60.17-97.02-90.24-145.57-2.37-4.36-7.51-6.92-12.43-5.84-5.5.64-9.65 6-9.28 11.44-.02 74.53-.02 149.06 0 223.59-33.65.07-67.3 0-100.94.03 5.18-131 8.96-262.08 14.1-393.09 23.76 1.92 47.58 3.26 71.36 4.87 1.81.23 4.16.07 5 2.12 44.28 65.62 88.67 131.15 133.02 196.72 2.53 3.56 4.43 8.01 8.61 9.95 5.23 2.36 12.24 1.02 15.45-3.98 46.04-68.18 92.18-136.3 138.25-204.46 25.02-1.92 50.1-3.14 75.12-5.22 5.13 131.02 8.91 262.1 14.08 393.09-33.63-.03-67.28.02-100.93-.02ZM512.06 490.13c-40.22-55.68-80.29-111.49-120.46-167.2 10.47-18.96 20.75-38.04 31.36-56.92 32.37.16 64.75.03 97.12.07v-.07h75.52v.02h5.5c10.55 18.89 20.87 37.94 31.32 56.9-38.06 52.89-78.62 109.75-116.66 162.64a76.914 76.914 0 0 1-3.7 4.57c21.99-52.92 47.11-109.33 69.67-162.22h-50.82c0 .07-.01.15-.02.22-6.56 53.96-11.96 108.09-18.83 162ZM524.79 276c2.05 13.96 4.32 27.89 6 41.9h50.94c-5.99-14.04-12.28-27.95-18.48-41.9h-38.46Z" style="fill:#fff"/>
</svg>

<svg width="1024" height="1024" viewBox="0 0 1024 1024" fill="none" xmlns="http://www.w3.org/2000/svg">
<g clip-path="url(#clip0_2_2760)">
<path d="M512 1024C794.77 1024 1024 794.77 1024 512C1024 229.23 794.77 0 512 0C229.23 0 0 229.23 0 512C0 794.77 229.23 1024 512 1024Z" fill="#9ABEFF"/>
<path d="M648.57 733.72C648.59 659.17 648.6 584.63 648.57 510.08C648.94 504.58 644.66 499.21 639.12 498.64C634.25 497.64 629.22 500.2 626.88 504.49C596.81 553.03 566.57 601.46 536.62 650.07C520.21 650.15 503.81 650.14 487.39 650.07C457.44 601.48 427.22 553.05 397.15 504.5C394.78 500.14 389.64 497.58 384.72 498.66C379.22 499.3 375.07 504.66 375.44 510.1C375.42 584.63 375.42 659.16 375.44 733.69C341.79 733.76 308.14 733.69 274.5 733.72C279.68 602.72 283.46 471.64 288.6 340.63C312.36 342.55 336.18 343.89 359.96 345.5C361.77 345.73 364.12 345.57 364.96 347.62C409.24 413.24 453.63 478.77 497.98 544.34C500.51 547.9 502.41 552.35 506.59 554.29C511.82 556.65 518.83 555.31 522.04 550.31C568.08 482.13 614.22 414.01 660.29 345.85C685.31 343.93 710.39 342.71 735.41 340.63C740.54 471.65 744.32 602.73 749.49 733.72C715.86 733.69 682.21 733.74 648.56 733.7L648.57 733.72ZM512.06 490.13C471.84 434.45 431.77 378.64 391.6 322.93C402.07 303.97 412.35 284.89 422.96 266.01C455.33 266.17 487.71 266.04 520.08 266.08V266.01H595.6V266.03H601.1C611.65 284.92 621.97 303.97 632.42 322.93C594.36 375.82 553.8 432.68 515.76 485.57C514.585 487.14 513.351 488.664 512.06 490.14C534.05 437.22 559.17 380.81 581.73 327.92H530.91C530.91 327.99 530.9 328.07 530.89 328.14C524.33 382.1 518.93 436.23 512.06 490.14V490.13ZM524.79 276C526.84 289.96 529.11 303.89 530.79 317.9H581.73C575.74 303.86 569.45 289.95 563.25 276H524.79Z" fill="white"/>
</g>
<defs>
<clipPath id="clip0_2_2760">
<rect width="1024" height="1024" fill="white"/>
</clipPath>
</defs>
</svg>
